X:5671
T:Rough and Rocky
O:england
S:Digital Tradition, ruffrcky
M:4/4
L:1/8
Q:2/4=132
W:Darling I have come to tell you
W:'Though it almost breaks my heart
W:But before the morning darling
W:We'll be many miles apart.
W:
W:  Chorus:
W:  Don't this road look rough and rocky
W:  Don't that sea look wide and deep
W:  Don't my baby look the sweetest
W:  When she's in my arms asleep.
W:
W:Can't you hear the night birds crying
W:Far across the deep blue sea
W:While of others you are thinking
W:Won't you sometimes think of me?
W:
W:One more kiss before I leave you
W:One more kiss before we part
W:You have caused me lots of trouble
W:Darling you have broke my heart.
K:D
A,2|D6E2|F2D2 G3G|F2D6-|D6A,2|D6F2|A2A2 G2F2|E8-|E4 z2 G,2|
D6E2|F2D2 G3G|F2D6-|D6z2|E6D2|C2G2 F2E2|D8-|D6z2|
G6A2|B2B2 A2G2|F2D6|D6F2|A2A2 G2F2|E8-|E4 z2G,2|D6E2|
F2D2 G3G|F2D6-|D6z2|E6D2|C2G2 F2E2|D8-|D6||


